public/images/hashed/e85bd38ed147da54fde52f26b61624ee.svg

<?xml version="1.0" encoding="UTF-8"?>
<svg width="80px" height="80px" viewBox="0 0 80 80" version="1.1" xmlns="http://www.w3.org/2000/svg" xmlns:xlink="http://www.w3.org/1999/xlink">
    <!-- Generator: Sketch 64 (93537) - https://sketch.com -->
    <title>Icon-Architecture/64/Arch_Amazon-Elastic-Container-Kubernetes_64</title>
    <desc>Created with Sketch.</desc>
    <defs>
        <linearGradient x1="0%" y1="100%" x2="100%" y2="0%" id="linearGradient-1">
            <stop stop-color="#C8511B" offset="0%"></stop>
            <stop stop-color="#FF9900" offset="100%"></stop>
        </linearGradient>
    </defs>
    <g id="Icon-Architecture/64/Arch_Amazon-Elastic-Container-Kubernetes_64" stroke="none" stroke-width="1" fill="none" fill-rule="evenodd">
        <g id="Icon-Architecture-BG/64/Containers" fill="url(#linearGradient-1)">
            <rect id="Rectangle" x="0" y="0" width="80" height="80"></rect>
        </g>
        <path d="M46.842,32.1990168 L40.013,40.1200132 L47.441,48.7840092 L44.669,48.7840092 L38,41.0000169 L38,49.0000169 L36,49.0000169 L36,32.0000169 L38,32.0000169 L38,39.0000169 L44.181,32.1990168 L46.842,32.1990168 Z M64,48.2340095 L56,43.4330117 L56,32.0000169 C56,31.6440171 55.812,31.3150172 55.504,31.1360173 L44,24.4260204 L44,14.7520248 L64,26.5710194 L64,48.2340095 Z M65.509,25.13902 L43.509,12.139026 C43.199,11.9560261 42.818,11.9540261 42.504,12.131026 C42.193,12.3090259 42,12.6410257 42,13.0000256 L42,25.0000201 C42,25.3550199 42.189,25.6840198 42.496,25.8640197 L54,32.5740166 L54,44.0000114 C54,44.3510113 54.185,44.6770111 54.486,44.857011 L64.486,50.8570083 C64.644,50.9520082 64.822,51 65,51 C65.17,51 65.34,50.9570082 65.493,50.8700083 C65.807,50.6930084 66,50.3600085 66,50 L66,26.0000196 C66,25.6460198 65.814,25.31902 65.509,25.13902 L65.509,25.13902 Z M40.445,66.863001 L17,54.3990067 L17,26.5710194 L37,14.7520248 L37,24.4510204 L26.463,31.1560173 C26.175,31.3400172 26,31.6580171 26,32.0000169 L26,49.0000091 C26,49.373009 26.208,49.7150088 26.538,49.8870087 L39.991,56.8870055 C40.28,57.0370055 40.624,57.0380055 40.912,56.8880055 L53.964,50.1440086 L61.996,54.9640064 L40.445,66.863001 Z M64.515,54.1420068 L54.515,48.1420095 C54.217,47.9640096 53.849,47.9520096 53.541,48.1120095 L40.455,54.8730065 L28,48.3930094 L28,32.5490167 L38.537,25.8440197 C38.825,25.6600198 39,25.3420199 39,25.0000201 L39,13.0000256 C39,12.6410257 38.808,12.3090259 38.496,12.131026 C38.184,11.9540261 37.802,11.9560261 37.491,12.139026 L15.491,25.13902 C15.187,25.31902 15,25.6460198 15,26.0000196 L15,55 C15,55.3690062 15.204,55.7090061 15.53,55.883006 L39.984,68.8830001 C40.131,68.961 40.292,69 40.453,69 C40.62,69 40.786,68.958 40.937,68.8750001 L64.484,55.875006 C64.797,55.7020061 64.993,55.3750062 65.0001416,55.0180064 C65.006,54.6600066 64.821,54.3260067 64.515,54.1420068 L64.515,54.1420068 Z" id="Amazon-Elastic-Container-Kubernetes_Icon_64_Squid" fill="#FFFFFF"></path>
    </g>
</svg>

<svg xmlns="http://www.w3.org/2000/svg" width="80" height="80"><defs><linearGradient id="a" x1="0%" x2="100%" y1="100%" y2="0%"><stop offset="0%" stop-color="#C8511B"/><stop offset="100%" stop-color="#F90"/></linearGradient></defs><g fill="none" fill-rule="evenodd"><path fill="url(#a)" d="M0 0h80v80H0z"/><path fill="#FFF" d="m46.842 32.199-6.829 7.921 7.428 8.664h-2.772L38 41v8h-2V32h2v7l6.181-6.801h2.661ZM64 48.234l-8-4.801V32a.998.998 0 0 0-.496-.864L44 24.426v-9.674l20 11.819v21.663Zm1.509-23.095-22-13a1.003 1.003 0 0 0-1.005-.008c-.311.178-.504.51-.504.869v12c0 .355.189.684.496.864L54 32.574V44a1 1 0 0 0 .486.857l10 6A.997.997 0 0 0 66 50V26a.998.998 0 0 0-.491-.861ZM40.445 66.863 17 54.399V26.571l20-11.819v9.699l-10.537 6.705A1.002 1.002 0 0 0 26 32v17a1 1 0 0 0 .538.887l13.453 7c.289.15.633.151.921.001l13.052-6.744 8.032 4.82-21.551 11.899Zm24.07-12.721-10-6a1 1 0 0 0-.974-.03l-13.086 6.761L28 48.393V32.549l10.537-6.705c.288-.184.463-.502.463-.844V13a1 1 0 0 0-1.509-.861l-22 13A1 1 0 0 0 15 26v29c0 .369.204.709.53.883l24.454 13a1 1 0 0 0 .953-.008l23.547-13a1.002 1.002 0 0 0 .031-1.733Z"/></g></svg>
